svg/weather/low_temperature_fill.svg

<?xml version="1.0" encoding="UTF-8"?>
<svg width="24px" height="24px" viewBox="0 0 24 24" version="1.1" xmlns="http://www.w3.org/2000/svg" xmlns:xlink="http://www.w3.org/1999/xlink">
    <title>low_temperature_fill</title>
    <g id="Icon" stroke="none" stroke-width="1" fill="none" fill-rule="evenodd">
        <g id="Weather" transform="translate(-433.000000, -240.000000)">
            <g id="low_temperature_fill" transform="translate(433.000000, 240.000000)">
                <path d="M24,0 L24,24 L0,24 L0,0 L24,0 Z M12.5935,23.2578 L12.5819,23.2595 L12.5109,23.295 L12.4919,23.2987 L12.4767,23.295 L12.4057,23.2595 C12.3958,23.2564 12.387,23.259 12.3821,23.2649 L12.378,23.2758 L12.3609,23.7031 L12.3659,23.7235 L12.3769,23.7357 L12.4805,23.8097 L12.4953,23.8136 L12.5071,23.8097 L12.6107,23.7357 L12.6233,23.7197 L12.6267,23.7031 L12.6096,23.2758 C12.6076,23.2657 12.601,23.2593 12.5935,23.2578 Z M12.8584,23.1453 L12.8445,23.1473 L12.6598,23.2397 L12.6499,23.2499 L12.6472,23.2611 L12.6651,23.6906 L12.6699,23.7034 L12.6784,23.7105 L12.8793,23.8032 C12.8914,23.8069 12.9022,23.803 12.9078,23.7952 L12.9118,23.7812 L12.8777,23.1665 C12.8753,23.1546 12.8674,23.147 12.8584,23.1453 Z M12.143,23.1473 C12.1332,23.1424 12.1222,23.1453 12.1156,23.1526 L12.1099,23.1665 L12.0758,23.7812 C12.0751,23.7927 12.0828,23.8019 12.0926,23.8046 L12.1083,23.8032 L12.3092,23.7105 L12.3186,23.7024 L12.3225,23.6906 L12.3404,23.2611 L12.3372,23.2485 L12.3278,23.2397 L12.143,23.1473 Z" id="MingCute" fill-rule="nonzero"></path>
                <path d="M9,2 C10.6569,2 12,3.34315 12,5 L12,12.9559 L12.0093,12.9771 L12.0093,12.9771 C12.0228,13.0016 12.0504,13.0376 12.0965,13.074 C13.2541,13.988 14,15.4072 14,17 C14,19.7614 11.7614,22 9,22 C6.23858,22 4,19.7614 4,17 C4,15.4072 4.74591,13.988 5.90349,13.074 C5.93425,13.0497333 5.95677,13.0256444 5.97235667,13.0050222 L6,12.9559 L6,12.9559 L6,5 C6,3.34315 7.34315,2 9,2 Z M12,17 L6,17 C6,18.6569 7.34315,20 9,20 C10.597725,20 11.903664,18.7511226 11.9949075,17.1762773 L12,17 Z M17,6 C17.51285,6 17.9355092,6.38604429 17.9932725,6.88337975 L18,7 L18,8.26795 L19.0981,7.63397 C19.5764,7.35783 20.188,7.52171 20.4641,8 C20.7205714,8.44412643 20.5975689,9.0031901 20.1957348,9.30189154 L20.0981,9.36603 L19,10 L20.0981,10.634 C20.5764,10.9101 20.7402,11.5217 20.4641,12 C20.2077214,12.4441357 19.6620597,12.6171816 19.2024623,12.4184953 L19.0981,12.366 L18,11.7321 L18,13 C18,13.5523 17.5523,14 17,14 C16.48715,14 16.0644908,13.613973 16.0067275,13.1166239 L16,13 L16,11.7321 L14.9019,12.366 C14.4236,12.6422 13.812,12.4783 13.5359,12 C13.2795214,11.5558643 13.4024444,10.9967913 13.8042666,10.6981286 L13.9019,10.634 L15,10 L13.9019,9.36603 C13.4236,9.08988 13.2597,8.47829 13.5359,8 C13.7922786,7.55587357 14.3379403,7.38284556 14.7975377,7.58148637 L14.9019,7.63397 L16,8.26795 L16,7 C16,6.44772 16.4477,6 17,6 Z" id="形状" fill="#09244B"></path>
            </g>
        </g>
    </g>
</svg>

<svg xmlns="http://www.w3.org/2000/svg" width="24" height="24"><g fill="none" fill-rule="evenodd"><path d="M24 0v24H0V0h24ZM12.594 23.258l-.012.002-.071.035-.02.004-.014-.004-.071-.036c-.01-.003-.019 0-.024.006l-.004.01-.017.428.005.02.01.013.104.074.015.004.012-.004.104-.074.012-.016.004-.017-.017-.427c-.002-.01-.009-.017-.016-.018Zm.264-.113-.014.002-.184.093-.01.01-.003.011.018.43.005.012.008.008.201.092c.012.004.023 0 .029-.008l.004-.014-.034-.614c-.003-.012-.01-.02-.02-.022Zm-.715.002a.023.023 0 0 0-.027.006l-.006.014-.034.614c0 .012.007.02.017.024l.015-.002.201-.093.01-.008.003-.011.018-.43-.003-.012-.01-.01-.184-.092Z"/><path fill="#09244B" d="M9 2a3 3 0 0 1 3 3v7.956l.01.021a.34.34 0 0 0 .087.097 5 5 0 1 1-6.193 0 .385.385 0 0 0 .068-.069l.028-.05V5a3 3 0 0 1 3-3Zm3 15H6a3 3 0 0 0 5.995.176L12 17Zm5-11a1 1 0 0 1 .993.883L18 7v1.268l1.098-.634a1 1 0 0 1 1.098 1.668l-.098.064L19 10l1.098.634a1 1 0 0 1-.896 1.784l-.104-.052L18 11.732V13a1 1 0 0 1-1.993.117L16 13v-1.268l-1.098.634a1 1 0 0 1-1.098-1.668l.098-.064L15 10l-1.098-.634a1 1 0 0 1 .896-1.785l.104.053L16 8.268V7a1 1 0 0 1 1-1Z"/></g></svg>
